X:705
T:Engelska
T:efter Alfred Petersson, Nättraby, Blekinge (SvL, Band 18, nr 313)
O:Nättraby, Blekinge
S:Svenska Låtar Blekinge nr 313
N:Svenska Låtar, Band 18 nr 313
R:Engelska
C:Alfred Petersson
M:2/4
L:1/16
Q:1/4=80
Z:Konverterad till abc-format av  Olle Paulsson 05-01-03
K:D
AFDF A2d2|BGDG B2d2|AFDF A2d2|(cd)ec d4:|
|:fdAd f2a2|(gf)ed cBA2|ecAc e2g2|(fg)ec d4:|

(:musicend:)

(:music:)
